X: 1
T: Colonel Rodgers' Favourite
R: reel
M: 4/4
L: 1/8
K: Gmaj
|:G2 dB cAFA|GABc dBcA|GBdB cAFA|GBAF GFED|
|GBdB cAFA|GABc defg|afge fdcA|1GBAF G2 (3DEF:|2 GBAF G2 ag||
|:fdde fdcA|dggf gbag|fdde fdcA|GBAF Geag|
|fdde fdcA|dggf gbag|fdde fdcA|1 GBAF G2 ag:|2 GBAF G2 (3DEF||


Tune 311	Setting 13078

